X: 28425
T: Mullagh Hill Tower
R: reel
M: 4/4
K: Gmajor
BdAF DGG2|FDFA gfdc|B3 c AFDC|A,B,CD GFD2|
BdAF DGG2|FDFA g2fg|afdc (3Bcd cA|1 FDFA G3 A:|2 FDFA G2 Bd||
g2 bg agg2|abga fdfa|gfdc ABcd|fgab gfd2|
g2 dB GBdg|bgg2 fdcA|FADF Adeg|1 fdcA G2Bd:|2 fdcA G3z||

